Numix-uTouch/48x48/apps/4kvideodownloader.svg

<?xml version="1.0" encoding="UTF-8" standalone="no"?>
<svg
   xmlns:dc="http://purl.org/dc/elements/1.1/"
   xmlns:cc="http://creativecommons.org/ns#"
   xmlns:rdf="http://www.w3.org/1999/02/22-rdf-syntax-ns#"
   xmlns:svg="http://www.w3.org/2000/svg"
   xmlns="http://www.w3.org/2000/svg"
   xmlns:xlink="http://www.w3.org/1999/xlink"
   xmlns:sodipodi="http://sodipodi.sourceforge.net/DTD/sodipodi-0.dtd"
   xmlns:inkscape="http://www.inkscape.org/namespaces/inkscape"
   width="48"
   height="48"
   viewBox="0 0 48 48"
   id="svg2"
   version="1.1"
   inkscape:version="0.48.4 r9939"
   sodipodi:docname="4kvideodownloader.svg">
  <metadata
     id="metadata25">
    <rdf:RDF>
      <cc:Work
         rdf:about="">
        <dc:format>image/svg+xml</dc:format>
        <dc:type
           rdf:resource="http://purl.org/dc/dcmitype/StillImage" />
        <dc:title></dc:title>
      </cc:Work>
    </rdf:RDF>
  </metadata>
  <sodipodi:namedview
     pagecolor="#ffffff"
     bordercolor="#666666"
     borderopacity="1"
     objecttolerance="10"
     gridtolerance="10"
     guidetolerance="10"
     inkscape:pageopacity="0"
     inkscape:pageshadow="2"
     inkscape:window-width="1280"
     inkscape:window-height="998"
     id="namedview23"
     showgrid="false"
     inkscape:zoom="8"
     inkscape:cx="37.027594"
     inkscape:cy="12.909019"
     inkscape:window-x="0"
     inkscape:window-y="0"
     inkscape:window-maximized="1"
     inkscape:current-layer="svg2" />
  <defs
     id="defs4">
    <linearGradient
       id="linearGradient3841">
      <stop
         offset="0"
         stop-color="#a9cc6f"
         id="stop3845" />
      <stop
         stop-color="#66a202"
         id="stop3843"
         offset="1" />
    </linearGradient>
    <radialGradient
       cx="148.004"
       cy="160"
       gradientTransform="matrix(0.1831,0,0,0.1831,-3.10029,-5.29688)"
       id="radial0"
       r="128"
       gradientUnits="userSpaceOnUse"
       xlink:href="#1">
      <stop
         offset="0"
         style="stop-color:#e5b9ad"
         id="stop7" />
      <stop
         offset="1"
         style="stop-color:#752612"
         id="stop9" />
    </radialGradient>
    <linearGradient
       xlink:href="#1"
       id="0"
       y1="1050.36"
       x2="0"
       y2="1006.36"
       gradientUnits="userSpaceOnUse" />
    <linearGradient
       id="1">
      <stop
         stop-color="#66a202"
         id="stop8" />
      <stop
         offset="1"
         stop-color="#a9cc6f"
         id="stop10" />
    </linearGradient>
    <radialGradient
       inkscape:collect="always"
       xlink:href="#linearGradient3841"
       id="radialGradient3839"
       cx="24"
       cy="24"
       fx="26.9375"
       fy="20.0625"
       r="23.4375"
       gradientUnits="userSpaceOnUse" />
    <linearGradient
       inkscape:collect="always"
       xlink:href="#1"
       id="linearGradient3859"
       gradientUnits="userSpaceOnUse"
       y1="1050.36"
       x2="0"
       y2="1006.36" />
    <linearGradient
       inkscape:collect="always"
       xlink:href="#1"
       id="linearGradient3863"
       gradientUnits="userSpaceOnUse"
       y1="1050.36"
       x2="0"
       y2="1006.36"
       gradientTransform="translate(54.682203,-998.9088)" />
  </defs>
  <path
     style="fill:url(#radialGradient3839);fill-opacity:1"
     d="M 47.4375 11.546875 L 47.4375 36.453125 C 47.4375 46.703125 47.4375 47.4375 36.453125 47.4375 L 11.550781 47.4375 C 0.5625 47.4375 0.5625 46.703125 0.5625 36.453125 L 0.5625 11.546875 C 0.5625 1.296875 0.5625 0.5625 11.550781 0.5625 L 36.453125 0.5625 C 47.4375 0.5625 47.4375 1.296875 47.4375 11.546875 Z "
     id="path11" />
  <path
     style="fill:#fff;fill-opacity:.051"
     d="M 38.265625 47.4375 C 40.808594 47.425781 42.644531 47.355469 43.976562 46.996094 L 39.746094 39.746094 L 35.261719 47.4375 L 36.453125 47.4375 C 37.09375 47.4375 37.695312 47.4375 38.265625 47.4375 Z M 39.746094 39.746094 L 34.621094 30.957031 L 29.492188 39.746094 Z M 39.746094 39.746094 L 47.398438 39.746094 C 47.429688 38.773438 47.4375 37.683594 47.4375 36.449219 L 47.4375 35.351562 L 44.875 30.957031 Z M 44.875 30.957031 L 39.746094 22.167969 L 34.621094 30.957031 Z M 44.875 30.957031 L 47.4375 30.957031 L 47.4375 26.5625 Z M 34.621094 30.957031 L 29.492188 22.167969 L 24.367188 30.957031 Z M 24.367188 30.957031 L 19.238281 39.746094 L 29.492188 39.746094 Z M 24.367188 30.957031 L 19.238281 22.167969 L 14.113281 30.957031 Z M 14.113281 30.957031 L 8.984375 39.746094 L 19.238281 39.746094 Z M 14.113281 30.957031 L 8.984375 22.167969 L 3.859375 30.957031 Z M 3.859375 30.957031 L 0.5625 36.605469 C 0.5625 37.773438 0.574219 38.816406 0.601562 39.746094 L 8.984375 39.746094 Z M 3.859375 30.957031 L 0.5625 25.308594 L 0.5625 30.957031 Z M 8.984375 39.746094 L 4.671875 47.140625 C 6.269531 47.433594 8.480469 47.4375 11.546875 47.4375 L 13.472656 47.4375 Z M 8.984375 22.167969 L 3.859375 13.378906 L 0.5625 19.027344 L 0.5625 22.167969 Z M 8.984375 22.167969 L 19.238281 22.167969 L 14.113281 13.378906 Z M 14.113281 13.378906 L 8.984375 4.589844 L 3.859375 13.378906 Z M 14.113281 13.378906 L 24.367188 13.378906 L 19.238281 4.589844 Z M 19.238281 4.589844 L 16.886719 0.5625 L 11.546875 0.5625 C 11.472656 0.5625 11.410156 0.5625 11.335938 0.5625 L 8.984375 4.589844 Z M 19.238281 4.589844 L 29.492188 4.589844 L 27.140625 0.5625 L 21.589844 0.5625 Z M 29.492188 4.589844 L 39.746094 4.589844 L 37.394531 0.5625 C 37.082031 0.5625 36.785156 0.5625 36.453125 0.5625 L 31.84375 0.5625 Z M 29.492188 4.589844 L 24.367188 13.378906 L 34.621094 13.378906 Z M 34.621094 13.378906 L 44.875 13.378906 L 39.746094 4.589844 Z M 34.621094 13.378906 L 29.492188 22.167969 L 39.746094 22.167969 Z M 39.746094 22.167969 L 47.4375 22.167969 L 47.4375 17.773438 L 44.875 13.378906 Z M 44.875 13.378906 L 47.4375 13.378906 L 47.4375 11.546875 C 47.4375 10.632812 47.429688 9.796875 47.414062 9.023438 Z M 29.492188 22.167969 L 24.367188 13.378906 L 19.238281 22.167969 Z M 39.746094 4.589844 L 47.054688 4.589844 C 46.5 1.832031 45.167969 0.960938 42.023438 0.6875 Z M 8.984375 4.589844 L 6.679688 0.636719 C 3.019531 0.84375 1.539062 1.632812 0.945312 4.589844 Z M 3.859375 13.378906 L 0.621094 7.824219 C 0.578125 8.898438 0.5625 10.132812 0.5625 11.546875 L 0.5625 13.378906 Z M 19.238281 39.746094 L 14.753906 47.4375 L 23.726562 47.4375 Z M 29.492188 39.746094 L 25.007812 47.4375 L 33.980469 47.4375 Z M 2.59375 46.367188 L 0.992188 43.621094 C 1.285156 44.9375 1.777344 45.800781 2.59375 46.367188 Z "
     id="path13" />
  <path
     id="path28"
     d="m 21.190279,14.002 c -0.56621,0.017 -1.14689,0.1108 -1.71729,0.3125 -2.44037,0.8626 -4.295,3.3633 -4.83966,6.4679 -1.60253,0.4021 -2.99295,1.856 -3.46582,3.9683 -0.67121,2.9986 0.73621,6.1244 3.12236,6.9679 0.0389,0.012 0.0546,0.021 0.0937,0.031 0.32957,0.148 0.72178,0.2499 1.09282,0.2499 l 0.53081,0 c 0,0 0.99915,-0.9902 0.99915,-1.9997 l 0,-11.9986 c 0,-0.9999 0.96793,-1.9997 0.96793,-1.9997 l 2.99747,0 c 0,0 -0.96793,0.9998 -0.96793,1.9997 l 0,2.9997 8.02446,0 0,-2.9997 c 0,-0.4999 0.2259,-0.9999 0.46835,-1.3748 -0.13961,0.032 -0.26662,0.076 -0.4059,0.125 -0.45806,0.1622 -0.86476,0.3976 -1.24895,0.7186 -1.31561,-2.2209 -3.42055,-3.5311 -5.65147,-3.4683 z m -2.90379,2.9996 c -0.15308,0.3058 -0.28101,0.6521 -0.28101,0.9999 l 0.99915,0 c 0,-0.3478 0.12793,-0.6941 0.28101,-0.9999 l -0.99915,0 z m 11.02193,0 c -0.15308,0.3058 -0.28101,0.6521 -0.28101,0.9999 l 0.99915,0 c 0,-0.3478 0.12793,-0.6941 0.28101,-0.9999 l -0.99915,0 z m 1.96708,0.094 c -0.13641,0.2886 -0.24978,0.5841 -0.24978,0.9061 l 0,11.9986 c 0,1.0155 -0.99916,1.9997 -0.99916,1.9997 l 2.74768,0 c 0.61921,0 1.17061,-0.2367 1.65485,-0.6249 1.93394,-1.1604 3.00431,-3.9433 2.40421,-6.6242 -0.44336,-1.9807 -1.6806,-3.4031 -3.15358,-3.9058 -0.0127,-0.066 -0.0169,-0.1212 -0.0312,-0.1874 -0.36249,-1.6188 -1.25286,-2.8837 -2.373,-3.5621 z m -13.27002,1.906 0,0.9999 0.99915,0 0,-0.9999 -0.99915,0 z m 11.02193,0 0,0.9999 0.99915,0 0,-0.9999 -0.99915,0 z m -11.02193,1.9998 0,0.9998 0.99915,0 0,-0.9998 -0.99915,0 z m 11.02193,0 0,0.9998 0.99915,0 0,-0.9998 -0.99915,0 z m -9.02362,0.9998 0,4.9994 8.02446,0 0,-4.9994 -8.02446,0 z m -1.99831,0.9999 0,0.9999 0.99915,0 0,-0.9999 -0.99915,0 z m 11.02193,0 0,0.9999 0.99915,0 0,-0.9999 -0.99915,0 z m -11.02193,1.9998 0,0.9999 0.99915,0 0,-0.9999 -0.99915,0 z m 11.02193,0 0,0.9999 0.99915,0 0,-0.9999 -0.99915,0 z m -11.02193,1.9997 0,0.9999 0.99915,0 0,-0.9999 -0.99915,0 z m 11.02193,0 0,0.9999 0.99915,0 0,-0.9999 -0.99915,0 z m -9.02362,0.9999 0,1.9998 c 0,0.9785 -0.99916,1.9997 -0.99916,1.9997 l 8.02447,0 c 0,0 0.99915,-0.9998 0.99915,-1.9997 l 0,-1.9998 -8.02446,0 z m -1.99831,0.9999 0,0.9999 0.99915,0 0,-0.9999 -0.99915,0 z m 11.02193,0 0,0.9999 0.99915,0 0,-0.9999 -0.99915,0 z m -11.30295,1.9998 C 17.428259,31.5731 17.006319,32 17.006319,32 l 0.99916,0 c 0,0 0.42193,-0.4269 0.71814,-0.9998 l -0.99916,0 z m 11.02193,0 C 28.450179,31.5731 28.028249,32 28.028249,32 l 0.99916,0 c 0,0 0.42193,-0.4269 0.71814,-0.9998 l -0.99916,0 z"
     inkscape:connector-curvature="0"
     style="fill:#f9f9f9" />
</svg>

<svg xmlns="http://www.w3.org/2000/svg" viewBox="0 0 48 48"><defs><radialGradient id="0" cx="24" cy="24" r="23.437" gradientUnits="userSpaceOnUse"><stop stop-color="#89b83a"/><stop offset="1" stop-color="#69981a"/></radialGradient></defs><path d="m 47.44 11.547 l 0 24.906 c 0 10.25 0 10.984 -10.984 10.984 l -24.902 0 c -10.988 0 -10.988 -0.734 -10.988 -10.984 l 0 -24.906 c 0 -10.25 0 -10.984 10.988 -10.984 l 24.902 0 c 10.984 0 10.984 0.734 10.984 10.984" fill="url(#0)"/><path d="m 21.19 14 c -0.566 0.016 -1.148 0.109 -1.719 0.313 c -2.441 0.859 -4.293 3.359 -4.84 6.465 c -1.605 0.402 -2.992 1.855 -3.473 3.969 c -0.668 2.996 0.738 6.121 3.121 6.965 c 0.039 0.012 0.063 0.023 0.102 0.031 c 0.328 0.152 0.723 0.254 1.09 0.254 l 0.531 0 c 0 0 1 -0.988 1 -2 l 0 -11.996 c 0 -1 0.969 -2 0.969 -2 l 2.996 0 c 0 0 -0.965 1 -0.965 2 l 0 3 l 8.02 0 l 0 -3 c 0 -0.5 0.227 -1 0.469 -1.375 c -0.137 0.031 -0.266 0.074 -0.406 0.125 c -0.457 0.16 -0.867 0.395 -1.25 0.719 c -1.313 -2.223 -3.418 -3.535 -5.652 -3.469 m -2.898 3 c -0.152 0.305 -0.281 0.652 -0.281 1 l 1 0 c 0 -0.348 0.125 -0.695 0.277 -1 m 10.03 0 c -0.152 0.305 -0.281 0.652 -0.281 1 l 1 0 c 0 -0.348 0.125 -0.695 0.277 -1 m 0.969 0.094 c -0.137 0.285 -0.25 0.582 -0.25 0.906 l 0 11.996 c 0 1.02 -0.996 2 -0.996 2 l 2.746 0 c 0.617 0 1.168 -0.238 1.652 -0.625 c 1.938 -1.156 3 -3.941 2.406 -6.621 c -0.441 -1.98 -1.688 -3.402 -3.152 -3.906 c -0.023 -0.066 -0.023 -0.121 -0.031 -0.188 c -0.363 -1.617 -1.254 -2.883 -2.375 -3.578 m -13.27 1.922 l 0 1 l 1 0 l 0 -1 m 10.02 0 l 0 1 l 1 0 l 0 -1 m -12.02 1.996 l 0 1 l 1 0 l 0 -1 m 10.02 0 l 0 1 l 1 0 l 0 -1 m -10.02 1 l 0 5 l 8.02 0 l 0 -5 m -10.02 1 l 0 1 l 1 0 l 0 -1 m 10.02 0 l 0 1 l 1 0 l 0 -1 m -12.02 1.996 l 0 1 l 1 0 l 0 -1 m 10.02 0 l 0 1 l 1 0 l 0 -1 m -12.02 2 l 0 1 l 1 0 l 0 -1 m 10.02 0 l 0 1 l 1 0 l 0 -1 m -10.02 1 l 0 1.996 c 0 0.98 -1 2 -1 2 l 8.02 0 c 0 0 1 -1 1 -2 l 0 -1.996 m -10.02 1 l 0 0.996 l 1 0 l 0 -0.996 m 10.02 0 l 0 0.996 l 1 0 l 0 -0.996 m -12.305 1.996 c -0.297 0.574 -0.719 1 -0.719 1 l 1 0 c 0 0 0.422 -0.426 0.719 -1 m 10.02 0 c -0.297 0.574 -0.719 1 -0.719 1 l 1 0 c 0 0 0.422 -0.426 0.719 -1 m -1 0" fill="#fff"/><path d="m 38.27 47.44 c 2.543 -0.012 4.379 -0.082 5.711 -0.441 l -4.23 -7.25 -4.484 7.691 1.191 0 c 0.641 0 1.242 0 1.813 0 z m 1.48 -7.691 -5.125 -8.789 -5.129 8.789 z m 0 0 7.652 0 c 0.031 -0.973 0.039 -2.063 0.039 -3.297 l 0 -1.098 -2.563 -4.395 z m 5.129 -8.789 -5.129 -8.789 -5.125 8.789 z m 0 0 2.563 0 0 -4.395 z m -10.254 0 -5.129 -8.789 -5.125 8.789 z m -10.254 0 -5.129 8.789 10.254 0 z m 0 0 -5.129 -8.789 -5.125 8.789 z m -10.254 0 -5.129 8.789 10.254 0 z m 0 0 -5.129 -8.789 -5.125 8.789 z m -10.254 0 -3.297 5.648 c 0 1.168 0.012 2.211 0.039 3.141 l 8.383 0 z m 0 0 -3.297 -5.648 0 5.648 z m 5.125 8.789 -4.313 7.395 c 1.598 0.293 3.809 0.297 6.879 0.297 l 1.922 0 z m 0 -17.578 -5.125 -8.789 -3.297 5.648 0 3.141 z m 0 0 10.254 0 -5.125 -8.789 z m 5.129 -8.789 -5.129 -8.789 -5.125 8.789 z m 0 0 10.254 0 -5.129 -8.789 z m 5.125 -8.789 -2.352 -4.03 -5.336 0 c -0.078 0 -0.141 0 -0.215 0 l -2.352 4.03 z m 0 0 10.254 0 -2.352 -4.03 -5.551 0 z m 10.254 0 10.254 0 l -2.352 -4.03 c -0.313 0 -0.609 0 -0.941 0 l -4.609 0 z m 0 0 -5.125 8.789 10.254 0 z m 5.129 8.789 10.254 0 -5.129 -8.789 z m 0 0 -5.129 8.789 10.254 0 z m 5.125 8.789 7.691 0 0 -4.395 -2.563 -4.395 z m 5.129 -8.789 2.563 0 0 -1.832 c 0 -0.914 -0.008 -1.75 -0.023 -2.523 z m -15.383 8.789 -5.125 -8.789 -5.129 8.789 z m 10.254 -17.578 7.309 0 c -0.555 -2.758 -1.887 -3.629 -5.03 -3.902 z m -30.762 0 l -2.305 -3.953 c -3.66 0.207 -5.141 0.996 -5.734 3.953 z m -5.125 8.789 l -3.238 -5.555 c -0.043 1.074 -0.059 2.309 -0.059 3.723 l 0 1.832 z m 15.379 26.367 -4.484 7.691 8.973 0 z m 10.254 0 -4.484 7.691 8.973 0 z m -26.898 6.621 -1.602 -2.746 c 0.293 1.316 0.785 2.18 1.602 2.746 z" fill="#fff" fill-opacity="0.067"/></svg>
